svg/u1f9a3.svg

<svg viewBox="0 0 128 128" xmlns="http://www.w3.org/2000/svg">
  <g>
    <path d="M116.51,48.97c3.78,5.6,4.32,10.42,5.2,17.19c0.8,6.16,1.6,10.68,2.97,15.43 c-3.76-1.43-9.14-5.45-9.39-14.36" fill="#9B6A57"/>
    <g>
      <linearGradient id="SVGID_1_" gradientUnits="userSpaceOnUse" x1="85.995" x2="85.995" y1="98.9395" y2="82.7869">
        <stop offset="0.2921" stop-color="#85574A"/>
        <stop offset="1" stop-color="#6A463E"/>
      </linearGradient>
      <path d="M88.86,62.11c-6.94-2.38-11.06,3.03-11.19,5.83c-0.42,8.84-1.75,31.81-0.21,34.8 c1.29,2.51,4.02,3.05,8.81,3.05c2.16,0,6.51-0.27,8.13-2.49c1.26-1.73-0.01-5-0.31-8.13c-0.42-4.43-0.19-10.99,0.66-16.52 C95.78,72.02,95.8,64.48,88.86,62.11z" fill="url(#SVGID_1_)"/>
      <g>
        <path d="M82.05,101.41c-1.24-0.12-2.11,2.05-2.51,3.38c1.18,0.6,2.75,0.86,4.77,0.95 C84.14,103.78,83.87,101.59,82.05,101.41z" fill="#9E9E9E"/>
        <path d="M87.81,101.98c-1.26,0.21-1.84,2.24-2.07,3.81c0.18,0,0.35,0.01,0.54,0.01 c1.13,0,2.85-0.08,4.47-0.46C89.96,103.09,89.07,101.77,87.81,101.98z" fill="#9E9E9E"/>
      </g>
    </g>
    <path d="M19.68,87.56c0,0,8.93,1.4,14.6-9.58c2.71-5.25,1.84-10.2,1.84-10.2l-5.78-6.01L19.68,87.56z" fill="#F7CC93"/>
    <g>
      <linearGradient id="SVGID_2_" gradientUnits="userSpaceOnUse" x1="44.6148" x2="44.6148" y1="99.2238" y2="80.4537">
        <stop offset="0" stop-color="#9B6A57"/>
        <stop offset="0.8691" stop-color="#85574A"/>
      </linearGradient>
      <path d="M55.25,72.46c-0.05-0.23-0.97-10.53-9.82-10.36c-8.85,0.18-11.16,3.67-11.65,6.74 c-0.91,5.74,0.52,14.38,0.96,18.24c0.53,4.66,1.59,9.34,0.99,14.04c-0.3,2.33-0.82,4.64-1.4,6.92c-1.07,4.22-0.84,6.24,1.62,7.76 c2.27,1.41,5.29,1.73,7.89,1.73c4.41,0,10.81-1.14,10.64-6.7c-0.05-1.62-0.52-3.2-0.81-4.8c-1.09-5.96-0.35-14.81,1.31-21.39 C55.68,81.83,56.15,76.62,55.25,72.46z" fill="url(#SVGID_2_)"/>
      <g>
        <path d="M35.08,111.99c-0.29-0.06-0.7-0.12-1.28,0.56c-0.01,0.01-0.01,0.02-0.02,0.03 c0.17,1.4,0.83,2.39,2.16,3.22c0.17,0.1,0.34,0.19,0.51,0.28C36.46,114.6,36.2,112.21,35.08,111.99z" fill="#C6C6C6"/>
        <path d="M40.73,112.99c-1.66,0-2.78,2.3-3.23,3.56c1.8,0.69,3.84,0.93,5.73,0.96 C43.05,115.2,42.2,112.99,40.73,112.99z" fill="#C6C6C6"/>
        <path d="M47.21,113.71c-1.44,0.2-2,2.52-2.25,3.79c1.75-0.08,3.67-0.36,5.33-1 C49.61,114.76,48.35,113.55,47.21,113.71z" fill="#C6C6C6"/>
      </g>
    </g>
    <path d="M20.6,87.46c-2.26,0.24-14.38-0.05-16.87-10.61c-1.31-5.55,0.87-13.9,1.69-15.46 c0.96-1.84,2.5-0.72,2.33,1.18c-0.14,1.54-0.65,9.95,1.77,12.66c5.09,5.71,10.47,2.25,10.47,2.25L20.6,87.46z" fill="#F7CC93"/>
    <radialGradient id="SVGID_3_" cx="58.5126" cy="44.436" gradientUnits="userSpaceOnUse" r="46.0355">
      <stop offset="0.27" stop-color="#85574A"/>
      <stop offset="0.8589" stop-color="#9B6A57"/>
    </radialGradient>
    <path d="M113.74,45.09c-3.55-3.87-8.33-6.19-13.21-7.92c-4.6-1.63-10.19-2.5-12.87-5.98 c-2.91-3.78-6-5.12-6-5.12c1.73-0.47,6.09,0.22,6.09,0.22s-5.58-7.7-15.94-5.64c1.21-1.59,4.43-3.18,4.43-3.18 s-13.37-6.09-22.58,9.03c-0.38,0.62-20.17,39.16-20.17,39.16C35.4,71.42,41.75,79.24,49.27,83c2.13,1.06,7.99,2.79,7.99,2.79 s2.72,6.77,2.38,14.71c-0.23,5.29-1.63,10.19-1.88,15.84c-0.12,2.74,0.71,4.59,3.19,5.66c2.59,1.11,5.26,1.6,8.08,1.6 c2.99,0,7.84-0.63,10.06-3.24c2.42-2.86,0.45-9.44,0.05-13.14c-0.4-3.75-0.6-16.8,2.7-21.85c0,0,2.41-0.02,4.4-0.28 c9.77-1.26,13.95-2.16,13.95-2.16c1.6,3.56-0.25,14.38-0.55,16.48c-0.49,3.43-1.22,6.73,0.19,8.6c2.04,2.7,6.65,3.29,9.65,3.29 c2.69,0,6.58-0.33,8.7-2.28c2.19-2.03,1.04-6.77,0.59-9.36c-1.4-8.06-3.34-14.87-2.09-23.06c0.57-3.75,1.75-9.43,1.75-14.47 C118.45,62.1,120.8,52.8,113.74,45.09z" fill="url(#SVGID_3_)"/>
    <linearGradient id="SVGID_4_" gradientUnits="userSpaceOnUse" x1="36.706" x2="76.2667" y1="77.2026" y2="22.4142">
      <stop offset="0.137" stop-color="#754D41"/>
      <stop offset="0.7859" stop-color="#805447" stop-opacity="0.2481"/>
      <stop offset="1" stop-color="#85574A" stop-opacity="0"/>
    </linearGradient>
    <path d="M86.19,39.56c2.98,15.81-8.03,22.7-8.03,22.7c-0.35-6.28-2.72-8.86-2.72-8.86 s1.53,10.53-8.63,19.21c0,0,2.09-7.88,0.51-11.7c-1.72,5.53-6.13,8.31-8.07,11.53c-4.08,6.78-2,13.36-2,13.36 s-3.48-0.23-11.92-4.07c-8.94-4.07-13.07-11.36-13.12-19.52c0,0-7.46-32,19.19-38.73C80.7,16.1,86.19,39.56,86.19,39.56z" fill="url(#SVGID_4_)"/>
    <g>
      <path d="M61.7,118.28c-1.07-0.1-2.3,1.03-2.72,2.37c0.44,0.53,1.08,0.96,1.98,1.35 c0.9,0.39,1.82,0.7,2.74,0.94C63.68,121.64,63.36,118.43,61.7,118.28z" fill="#C6C6C6"/>
      <path d="M68.05,118.71c-2.11,0.22-2.77,3.46-2.94,4.54c1.29,0.24,2.6,0.35,3.94,0.35 c0.71,0,1.54-0.03,2.41-0.11C71.06,120.83,69.73,118.53,68.05,118.71z" fill="#C6C6C6"/>
      <path d="M75.02,118.7c-1.22,0.4-1.83,3.12-1.94,4.58c1.98-0.33,3.98-0.97,5.33-2.18 C77.51,119.74,76.28,118.28,75.02,118.7z" fill="#C6C6C6"/>
    </g>
    <g>
      <path d="M102.68,105.94c-1.01-0.09-2.25,1.11-2.65,2.37c0.42,0.5,1.09,1.07,1.94,1.43 c0.9,0.39,1.61,0.75,2.66,0.99C104.6,109.51,104.24,106.08,102.68,105.94z" fill="#C6C6C6"/>
      <path d="M108.65,106.34c-1.99,0.2-2.67,3.58-2.83,4.6c1.21,0.22,2.41,0.34,3.68,0.34 c0.67,0,1.61-0.03,2.43-0.1C111.56,108.68,110.23,106.18,108.65,106.34z" fill="#C6C6C6"/>
      <path d="M115.21,106.33c-1.15,0.38-1.73,3.33-1.83,4.71c1.86-0.31,3.97-1.08,5.06-2.31 C117.6,107.45,116.4,105.94,115.21,106.33z" fill="#C6C6C6"/>
    </g>
    <g>
      <path d="M24.72,87.63c2.21-5.95,4.5-10.46,8.15-15.6c3.87-5.46,8.04-9.25,9.27-9.63 c1.25-0.38,3.4-1.7,4.74-2.21c3.56-1.35,6.2-3.61,6.11-5.71c-0.16-3.86,7.85-16.72,1.16-26.69c-2.18-3.25-5.75-5.59-9.3-7.24 c-3.72-1.73-7.28-3.7-11.42-4.32c-3.96-0.6-1.79,3.11-5,5.52c-7.6,5.7-7.69,12.94-8.9,15.34s-2.96,3.5-2.85,6.46 c0.11,2.66,0.89,3.24,1.04,5.85s-1.33,11.71-2.47,15.06c-2.12,6.22-3.37,12.78-3.62,19.39c-0.34,8.95,2.78,18.77,10.48,23.35 c1.93,1.15,4.32,1.92,6.4,1.08s3.21-3.9,1.58-5.44c-0.94-0.89-2.37-0.97-3.53-1.53c-1.91-0.92-2.98-3.08-3.16-5.19 C23.15,93.48,23.8,90.11,24.72,87.63z" fill="#9B6A57"/>
      <ellipse cx="38.3" cy="44.24" fill="#212121" rx="2.44" ry="3" transform="matrix(0.9943 -0.1071 0.1071 0.9943 -4.5166 4.3557)"/>
      <path d="M37.22,90.57c-22.35,0.72-26.23-28.49-26.45-29.43c-0.35-1.45,1.32-2.15,2.2-0.51 C13.74,62.08,25.41,86.4,37,80.75c4.79-2.34,5.14-18.41,2.82-21.91c-1.23-1.85,8.53-2.45,8.53-2.45c2.42,5.26,4.4,23.43-4.25,31.1 C42.1,89.28,39.83,90.41,37.22,90.57z" fill="#FADCB2"/>
      <path d="M39.59,56.98c-1.18,1.55-0.61,4.89,0,6.33c1.13,2.67,3.98,5.06,3.98,5.06l0.84-2.98l2.43,2.98 l1.74-3.26c0,0,0.71,2.18,2.14,3.43c0,0,1.73-4.54,3.12-6.99c1.75-3.09,3.62-2.83,3.91-7.04" fill="#9B6A57"/>
      <path d="M37.85,9.88c-7.48,2.4-11.39,1.03-11.39,1.03s0.26,4.94,3.72,5.01c-4.07,0.6-6.32,2.47-8.81,6.66 c0,0,7.56-0.05,8.37,0.42c0,0,0.95,6.28,21.13,11.14c2.93,0.71,11.81-1.23,11.77-3.98c-0.03-2.17-0.49-3.75-1.67-5.91 c0,0,2.4,0.63,3.73-1.09c-1.5-1.01-3.11-3.58-4.06-5.11c-2.6-4.15-5.96-7.34-9.91-8.63C46.25,7.96,42.3,8.45,37.85,9.88z" fill="#9B6A57"/>
      <path d="M31.93,18.96c-0.72,0.75-1.36,1.54-1.84,2.41c-0.5,0.85-0.85,1.77-1.1,2.7 c-0.26,0.93-0.38,1.88-0.41,2.84c-0.05,0.93,0.01,1.95,0.17,2.76l-1.98-0.77l3.43-2.99l1.69-1.51c0.55-0.5,1.13-1,1.61-1.48 l2.17-2.15l0.3,3.06l0.37,3.7c0.12,1.23,0.21,2.47,0.31,3.71l-1.98-1.26c0.77-0.27,1.51-0.57,2.25-0.9 c0.73-0.33,1.44-0.72,2.11-1.15c0.66-0.45,1.32-0.9,1.91-1.43c0.58-0.51,1.16-1.15,1.54-1.68l1.11-1.5l0.57,1.51 c0.21,0.55,0.52,1.16,0.86,1.71c0.33,0.57,0.7,1.11,1.13,1.61c0.85,1,1.91,1.85,3.25,2.29c-1.41,0.01-2.84-0.61-4-1.5 c-0.58-0.45-1.12-0.96-1.61-1.51c-0.48-0.57-0.91-1.13-1.31-1.83l1.67,0c-0.43,1.01-0.96,1.73-1.58,2.47 c-0.61,0.72-1.29,1.39-2.03,1.96c-0.74,0.57-1.53,1.09-2.34,1.55c-0.81,0.47-1.67,0.82-2.53,1.17l-1.8,0.73l-0.18-1.99 c-0.11-1.24-0.24-2.47-0.34-3.71l-0.29-3.71L35.55,25c-0.61,0.58-1.19,1.08-1.79,1.57l-1.8,1.44c-1.21,0.94-2.4,1.89-3.65,2.8 l-1.82,1.33l-0.15-2.09c-0.09-1.23,0.01-2.27,0.19-3.38c0.21-1.09,0.54-2.15,1.01-3.14c0.48-0.99,1.1-1.91,1.84-2.69 C30.13,20.06,31,19.42,31.93,18.96z" fill="#6A463E"/>
      <path d="M56.66,30.16c2.86-1.55,7.62-1.52,10.36-0.27c10.15,4.64,6.62,18.18,6.62,18.18 c-1.25-1.59-3.58-4.33-3.58-4.33c0.28,5.86-4,10.65-4,10.65c-0.18-0.77-1.11-2.89-1.4-3.44c-2.6,3.91-5.26,10.65-5.26,10.65 c-2.56-1.02-5.73-3.94-6.6-5.77c-0.49-1.03-4.8-8.26-1.02-19.77C52.75,33.09,53.74,31.74,56.66,30.16z" fill="#9B6A57"/>
      <path d="M58.56,28.68c-3.37,1.01-5.46,2.97-6.43,4.09c-0.41,0.47-0.82,1.52,0.41,0.46 c1.21-1.05,9.89-6.5,16.68-0.03c4.52,4.3,3.36,12.14,3.36,12.14c-1.98-2.95-3.8-3.51-3.8-3.51s1.47,7.23-2.28,10.48 c0,0-1.06-2.92-2.14-3.22c0,0-0.65,2.96-2.31,4.9c-1.52,1.78-2.45,4.08-3.03,6.17c-6.73-2.37-7.39-10.06-7.4-10.13l-0.17-1.93 c-0.4,0.29-1.44,4.2,0.89,8.28c2.76,4.84,7.45,6.25,8.41,5.89c0,0-0.6-3.16,2.38-6.72c0.93-1.11,1.67-2.47,1.67-2.47 c0.44,0.68,0.74,2.73,0.74,2.73s5.27-2.65,5.31-9.37c1.12,0.67,2.65,3.28,2.65,3.28s4.4-7.04-1.07-16.33 C68.89,27.37,61.64,27.75,58.56,28.68z" fill="#6A463E"/>
    </g>
    <path d="M91.47,79.35c0,0,1.47-5.29-0.74-8.56c-2,3.3-4.19,10.65-4.19,10.65s-1.86-2.23-0.74-6.98 c-3.8,6.47-3.98,10.91-3.98,10.91s2.72-0.12,4.4-0.28c3.77-0.35,13.95-2.16,13.95-2.16s0.63-5.09,4.81-10.6 c-3.13,1.34-3.6,2.27-5.33,5.21c2.09-7.53-0.98-12.7-0.98-12.7C98.15,77.61,91.47,79.35,91.47,79.35z" fill="#85574A"/>
    <path d="M112.31,44.63c-2.16-3.26-4.73-4.47-6.48-5.35c-1.79-0.9-3.66-1.61-5.53-2.33 c-7.32-2.79-11.13-4.26-11.37-4.44c0.4,0.3,3.12,5.93,4.14,12.25c0,0,1.52-6.41,1.58-8.16c1.4,4.33,5.16,6.49,7.67,13.47 c1.63-4.37-0.33-7.81-0.14-10.05c3.53,3.72,4.74,9.3,5.3,14.37c1.74-2.51,2.28-6.61,2.42-9.35c2.93,4.26,4,9.07,4,9.07 S115.45,49.37,112.31,44.63z" fill="#BD816A"/>
  </g>
</svg>

<svg viewBox="0 0 128 128" xmlns="http://www.w3.org/2000/svg">
  <defs>
    <radialGradient id="SVGID_3_" cx="58.5126" cy="44.436" gradientUnits="userSpaceOnUse" r="46.0355">
      <stop offset="0.27" stop-color="#85574A"/>
      <stop offset="0.8589" stop-color="#9B6A57"/>
    </radialGradient>
    <linearGradient id="SVGID_4_" gradientUnits="userSpaceOnUse" x1="36.706" x2="76.2667" y1="77.2026" y2="22.4142">
      <stop offset="0.137" stop-color="#754D41"/>
      <stop offset="0.7859" stop-color="#805447" stop-opacity="0.2481"/>
      <stop offset="1" stop-color="#85574A" stop-opacity="0"/>
    </linearGradient>
    <linearGradient id="SVGID_1_" gradientUnits="userSpaceOnUse" x1="85.995" x2="85.995" y1="98.9395" y2="82.7869">
      <stop offset="0.2921" stop-color="#85574A"/>
      <stop offset="1" stop-color="#6A463E"/>
    </linearGradient>
    <linearGradient id="SVGID_2_" gradientUnits="userSpaceOnUse" x1="44.6148" x2="44.6148" y1="99.2238" y2="80.4537">
      <stop offset="0" stop-color="#9B6A57"/>
      <stop offset="0.8691" stop-color="#85574A"/>
    </linearGradient>
  </defs>
  <path d="M116.51,48.97 C120.29,54.57 120.83,59.39 121.71,66.16 C122.51,72.32 123.31,76.84 124.68,81.59 C120.92,80.16 115.54,76.14 115.29,67.23" fill="#9B6A57"/>
  <path d="M88.86,62.11 C81.92,59.73 77.8,65.14 77.67,67.94 C77.25,76.78 75.92,99.75 77.46,102.74 C78.75,105.25 81.48,105.79 86.27,105.79 C88.43,105.79 92.78,105.52 94.4,103.3 C95.66,101.57 94.39,98.3 94.09,95.17 C93.67,90.74 93.9,84.18 94.75,78.65 C95.78,72.02 95.8,64.48 88.86,62.11 Z" fill="url(#SVGID_1_)"/>
  <path d="M82.05,101.41 C80.81,101.29 79.94,103.46 79.54,104.79 C80.72,105.39 82.29,105.65 84.31,105.74 C84.14,103.78 83.87,101.59 82.05,101.41 Z" fill="#9E9E9E"/>
  <path d="M87.81,101.98 C86.55,102.19 85.97,104.22 85.74,105.79 C85.92,105.79 86.09,105.8 86.28,105.8 C87.41,105.8 89.13,105.72 90.75,105.34 C89.96,103.09 89.07,101.77 87.81,101.98 Z" fill="#9E9E9E"/>
  <path d="M19.68,87.56 C19.68,87.56 28.61,88.96 34.28,77.98 C36.99,72.73 36.12,67.78 36.12,67.78 L30.34,61.77 L19.68,87.56 Z" fill="#F7CC93"/>
  <path d="M55.25,72.46 C55.2,72.23 54.28,61.93 45.43,62.1 C36.58,62.28 34.27,65.77 33.78,68.84 C32.87,74.58 34.3,83.22 34.74,87.08 C35.27,91.74 36.33,96.42 35.73,101.12 C35.43,103.45 34.91,105.76 34.33,108.04 C33.26,112.26 33.49,114.28 35.95,115.8 C38.22,117.21 41.24,117.53 43.84,117.53 C48.25,117.53 54.65,116.39 54.48,110.83 C54.43,109.21 53.96,107.63 53.67,106.03 C52.58,100.07 53.32,91.22 54.98,84.64 C55.68,81.83 56.15,76.62 55.25,72.46 Z" fill="url(#SVGID_2_)"/>
  <path d="M35.08,111.99 C34.79,111.93 34.38,111.87 33.8,112.55 C33.79,112.56 33.79,112.57 33.78,112.58 C33.95,113.98 34.61,114.97 35.94,115.8 C36.11,115.9 36.28,115.99 36.45,116.08 C36.46,114.6 36.2,112.21 35.08,111.99 Z" fill="#C6C6C6"/>
  <path d="M40.73,112.99 C39.07,112.99 37.95,115.29 37.5,116.55 C39.3,117.24 41.34,117.48 43.23,117.51 C43.05,115.2 42.2,112.99 40.73,112.99 Z" fill="#C6C6C6"/>
  <path d="M47.21,113.71 C45.77,113.91 45.21,116.23 44.96,117.5 C46.71,117.42 48.63,117.14 50.29,116.5 C49.61,114.76 48.35,113.55 47.21,113.71 Z" fill="#C6C6C6"/>
  <path d="M20.6,87.46 C18.34,87.7 6.22,87.41 3.73,76.85 C2.42,71.3 4.6,62.95 5.42,61.39 C6.38,59.55 7.92,60.67 7.75,62.57 C7.61,64.11 7.1,72.52 9.52,75.23 C14.61,80.94 19.99,77.48 19.99,77.48 L20.6,87.46 Z" fill="#F7CC93"/>
  <path d="M113.74,45.09 C110.19,41.22 105.41,38.9 100.53,37.17 C95.93,35.54 90.34,34.67 87.66,31.19 C84.75,27.41 81.66,26.07 81.66,26.07 C83.39,25.6 87.75,26.29 87.75,26.29 C87.75,26.29 82.17,18.59 71.81,20.65 C73.02,19.06 76.24,17.47 76.24,17.47 C76.24,17.47 62.87,11.38 53.66,26.5 C53.28,27.12 33.49,65.66 33.49,65.66 C35.4,71.42 41.75,79.24 49.27,83 C51.4,84.06 57.26,85.79 57.26,85.79 C57.26,85.79 59.98,92.56 59.64,100.5 C59.41,105.79 58.01,110.69 57.76,116.34 C57.64,119.08 58.47,120.93 60.95,122 C63.54,123.11 66.21,123.6 69.03,123.6 C72.02,123.6 76.87,122.97 79.09,120.36 C81.51,117.5 79.54,110.92 79.14,107.22 C78.74,103.47 78.54,90.42 81.84,85.37 C81.84,85.37 84.25,85.35 86.24,85.09 C96.01,83.83 100.19,82.93 100.19,82.93 C101.79,86.49 99.94,97.31 99.64,99.41 C99.15,102.84 98.42,106.14 99.83,108.01 C101.87,110.71 106.48,111.3 109.48,111.3 C112.17,111.3 116.06,110.97 118.18,109.02 C120.37,106.99 119.22,102.25 118.77,99.66 C117.37,91.6 115.43,84.79 116.68,76.6 C117.25,72.85 118.43,67.17 118.43,62.13 C118.45,62.1 120.8,52.8 113.74,45.09 Z" fill="url(#SVGID_3_)"/>
  <path d="M86.19,39.56 C89.17,55.37 78.16,62.26 78.16,62.26 C77.81,55.98 75.44,53.4 75.44,53.4 C75.44,53.4 76.97,63.93 66.81,72.61 C66.81,72.61 68.9,64.73 67.32,60.91 C65.6,66.44 61.19,69.22 59.25,72.44 C55.17,79.22 57.25,85.8 57.25,85.8 C57.25,85.8 53.77,85.57 45.33,81.73 C36.39,77.66 32.26,70.37 32.21,62.21 C32.21,62.21 24.75,30.21 51.4,23.48 C80.7,16.1 86.19,39.56 86.19,39.56 Z" fill="url(#SVGID_4_)"/>
  <path d="M61.7,118.28 C60.63,118.18 59.4,119.31 58.98,120.65 C59.42,121.18 60.06,121.61 60.96,122 C61.86,122.39 62.78,122.7 63.7,122.94 C63.68,121.64 63.36,118.43 61.7,118.28 Z" fill="#C6C6C6"/>
  <path d="M68.05,118.71 C65.94,118.93 65.28,122.17 65.11,123.25 C66.4,123.49 67.71,123.6 69.05,123.6 C69.76,123.6 70.59,123.57 71.46,123.49 C71.06,120.83 69.73,118.53 68.05,118.71 Z" fill="#C6C6C6"/>
  <path d="M75.02,118.7 C73.8,119.1 73.19,121.82 73.08,123.28 C75.06,122.95 77.06,122.31 78.41,121.1 C77.51,119.74 76.28,118.28 75.02,118.7 Z" fill="#C6C6C6"/>
  <path d="M102.68,105.94 C101.67,105.85 100.43,107.05 100.03,108.31 C100.45,108.81 101.12,109.38 101.97,109.74 C102.87,110.13 103.58,110.49 104.63,110.73 C104.6,109.51 104.24,106.08 102.68,105.94 Z" fill="#C6C6C6"/>
  <path d="M108.65,106.34 C106.66,106.54 105.98,109.92 105.82,110.94 C107.03,111.16 108.23,111.28 109.5,111.28 C110.17,111.28 111.11,111.25 111.93,111.18 C111.56,108.68 110.23,106.18 108.65,106.34 Z" fill="#C6C6C6"/>
  <path d="M115.21,106.33 C114.06,106.71 113.48,109.66 113.38,111.04 C115.24,110.73 117.35,109.96 118.44,108.73 C117.6,107.45 116.4,105.94 115.21,106.33 Z" fill="#C6C6C6"/>
  <path d="M24.72,87.63 C26.93,81.68 29.22,77.17 32.87,72.03 C36.74,66.57 40.91,62.78 42.14,62.4 C43.39,62.02 45.54,60.7 46.88,60.19 C50.44,58.84 53.08,56.58 52.99,54.48 C52.83,50.62 60.84,37.76 54.15,27.79 C51.97,24.54 48.4,22.2 44.85,20.55 C41.13,18.82 37.57,16.85 33.43,16.23 C29.47,15.63 31.64,19.34 28.43,21.75 C20.83,27.45 20.74,34.69 19.53,37.09 C18.32,39.49 16.57,40.59 16.68,43.55 C16.79,46.21 17.57,46.79 17.72,49.4 C17.87,52.01 16.39,61.11 15.25,64.46 C13.13,70.68 11.88,77.24 11.63,83.85 C11.29,92.8 14.41,102.62 22.11,107.2 C24.04,108.35 26.43,109.12 28.51,108.28 C30.59,107.44 31.72,104.38 30.09,102.84 C29.15,101.95 27.72,101.87 26.56,101.31 C24.65,100.39 23.58,98.23 23.4,96.12 C23.15,93.48 23.8,90.11 24.72,87.63 Z" fill="#9B6A57"/>
  <path d="M40.729,43.98 C40.907,45.628 39.964,47.08 38.624,47.225 C37.285,47.369 36.055,46.15 35.877,44.503 C35.7,42.856 36.642,41.403 37.982,41.259 C39.322,41.114 40.552,42.333 40.729,43.98 Z" fill="#212121"/>
  <path d="M37.22,90.57 C14.87,91.29 10.99,62.08 10.77,61.14 C10.42,59.69 12.09,58.99 12.97,60.63 C13.74,62.08 25.41,86.4 37,80.75 C41.79,78.41 42.14,62.34 39.82,58.84 C38.59,56.99 48.35,56.39 48.35,56.39 C50.77,61.65 52.75,79.82 44.1,87.49 C42.1,89.28 39.83,90.41 37.22,90.57 Z" fill="#FADCB2"/>
  <path d="M39.59,56.98 C38.41,58.53 38.98,61.87 39.59,63.31 C40.72,65.98 43.57,68.37 43.57,68.37 L44.41,65.39 L46.84,68.37 L48.58,65.11 C48.58,65.11 49.29,67.29 50.72,68.54 C50.72,68.54 52.45,64 53.84,61.55 C55.59,58.46 57.46,58.72 57.75,54.51" fill="#9B6A57"/>
  <path d="M37.85,9.88 C30.37,12.28 26.46,10.91 26.46,10.91 C26.46,10.91 26.72,15.85 30.18,15.92 C26.11,16.52 23.86,18.39 21.37,22.58 C21.37,22.58 28.93,22.53 29.74,23 C29.74,23 30.69,29.28 50.87,34.14 C53.8,34.85 62.68,32.91 62.64,30.16 C62.61,27.99 62.15,26.41 60.97,24.25 C60.97,24.25 63.37,24.88 64.7,23.16 C63.2,22.15 61.59,19.58 60.64,18.05 C58.04,13.9 54.68,10.71 50.73,9.42 C46.25,7.96 42.3,8.45 37.85,9.88 Z" fill="#9B6A57"/>
  <path d="M31.93,18.96 C31.21,19.71 30.57,20.5 30.09,21.37 C29.59,22.22 29.24,23.14 28.99,24.07 C28.73,25 28.61,25.95 28.58,26.91 C28.53,27.84 28.59,28.86 28.75,29.67 L26.77,28.9 L30.2,25.91 L31.89,24.4 C32.44,23.9 33.02,23.4 33.5,22.92 L35.67,20.77 L35.97,23.83 L36.34,27.53 C36.46,28.76 36.55,30 36.65,31.24 L34.67,29.98 C35.44,29.71 36.18,29.41 36.92,29.08 C37.65,28.75 38.36,28.36 39.03,27.93 C39.69,27.48 40.35,27.03 40.94,26.5 C41.52,25.99 42.1,25.35 42.48,24.82 L43.59,23.32 L44.16,24.83 C44.37,25.38 44.68,25.99 45.02,26.54 C45.35,27.11 45.72,27.65 46.15,28.15 C47,29.15 48.06,30 49.4,30.44 C47.99,30.45 46.56,29.83 45.4,28.94 C44.82,28.49 44.28,27.98 43.79,27.43 C43.31,26.86 42.88,26.3 42.48,25.6 L44.15,25.6 C43.72,26.61 43.19,27.33 42.57,28.07 C41.96,28.79 41.28,29.46 40.54,30.03 C39.8,30.6 39.01,31.12 38.2,31.58 C37.39,32.05 36.53,32.4 35.67,32.75 L33.87,33.48 L33.69,31.49 C33.58,30.25 33.45,29.02 33.35,27.78 L33.06,24.07 L35.55,25 C34.94,25.58 34.36,26.08 33.76,26.57 L31.96,28.01 C30.75,28.95 29.56,29.9 28.31,30.81 L26.49,32.14 L26.34,30.05 C26.25,28.82 26.35,27.78 26.53,26.67 C26.74,25.58 27.07,24.52 27.54,23.53 C28.02,22.54 28.64,21.62 29.38,20.84 C30.13,20.06 31,19.42 31.93,18.96 Z" fill="#6A463E"/>
  <path d="M56.66,30.16 C59.52,28.61 64.28,28.64 67.02,29.89 C77.17,34.53 73.64,48.07 73.64,48.07 C72.39,46.48 70.06,43.74 70.06,43.74 C70.34,49.6 66.06,54.39 66.06,54.39 C65.88,53.62 64.95,51.5 64.66,50.95 C62.06,54.86 59.4,61.6 59.4,61.6 C56.84,60.58 53.67,57.66 52.8,55.83 C52.31,54.8 48,47.57 51.78,36.06 C52.75,33.09 53.74,31.74 56.66,30.16 Z" fill="#9B6A57"/>
  <path d="M58.56,28.68 C55.19,29.69 53.1,31.65 52.13,32.77 C51.72,33.24 51.31,34.29 52.54,33.23 C53.75,32.18 62.43,26.73 69.22,33.2 C73.74,37.5 72.58,45.34 72.58,45.34 C70.6,42.39 68.78,41.83 68.78,41.83 C68.78,41.83 70.25,49.06 66.5,52.31 C66.5,52.31 65.44,49.39 64.36,49.09 C64.36,49.09 63.71,52.05 62.05,53.99 C60.53,55.77 59.6,58.07 59.02,60.16 C52.29,57.79 51.63,50.1 51.62,50.03 L51.45,48.1 C51.05,48.39 50.01,52.3 52.34,56.38 C55.1,61.22 59.79,62.63 60.75,62.27 C60.75,62.27 60.15,59.11 63.13,55.55 C64.06,54.44 64.8,53.08 64.8,53.08 C65.24,53.76 65.54,55.81 65.54,55.81 C65.54,55.81 70.81,53.16 70.85,46.44 C71.97,47.11 73.5,49.72 73.5,49.72 C73.5,49.72 77.9,42.68 72.43,33.39 C68.89,27.37 61.64,27.75 58.56,28.68 Z" fill="#6A463E"/>
  <path d="M91.47,79.35 C91.47,79.35 92.94,74.06 90.73,70.79 C88.73,74.09 86.54,81.44 86.54,81.44 C86.54,81.44 84.68,79.21 85.8,74.46 C82,80.93 81.82,85.37 81.82,85.37 C81.82,85.37 84.54,85.25 86.22,85.09 C89.99,84.74 100.17,82.93 100.17,82.93 C100.17,82.93 100.8,77.84 104.98,72.33 C101.85,73.67 101.38,74.6 99.65,77.54 C101.74,70.01 98.67,64.84 98.67,64.84 C98.15,77.61 91.47,79.35 91.47,79.35 Z" fill="#85574A"/>
  <path d="M112.31,44.63 C110.15,41.37 107.58,40.16 105.83,39.28 C104.04,38.38 102.17,37.67 100.3,36.95 C92.98,34.16 89.17,32.69 88.93,32.51 C89.33,32.81 92.05,38.44 93.07,44.76 C93.07,44.76 94.59,38.35 94.65,36.6 C96.05,40.93 99.81,43.09 102.32,50.07 C103.95,45.7 101.99,42.26 102.18,40.02 C105.71,43.74 106.92,49.32 107.48,54.39 C109.22,51.88 109.76,47.78 109.9,45.04 C112.83,49.3 113.9,54.11 113.9,54.11 C113.9,54.11 115.45,49.37 112.31,44.63 Z" fill="#BD816A"/>
</svg>
